src/main/resources/icons/FreemarkerIcons/icons/macro.svg

<svg xmlns="http://www.w3.org/2000/svg" width="16" height="16" viewBox="0 0 16 16"><rect id="frame" width="16" height="16" fill="none"/><g fill="none" fill-rule="evenodd"><path fill="#F98B9E" fill-opacity=".6" d="M15 8A7 7 0 1 1 1 8a7 7 0 0 1 14 0"/><path fill="#231F20" fill-opacity=".7" d="M11.852 10.16v1.14c-.216.06-.468.12-.84.12-.804 0-1.296-.276-1.524-.9-.384.588-.936.912-1.572.912-.684 0-1.344-.324-1.644-.996h-.024c.096.516.192.912.192 1.464v1.356H5V5h1.464v3.6c0 .972.552 1.584 1.404 1.584.852 0 1.428-.612 1.428-1.584V5h1.452v4.44c0 .54.24.768.696.768.156 0 .3-.024.408-.048z"/></g></svg>

<svg xmlns="http://www.w3.org/2000/svg" width="16" height="16" viewBox="0 0 16 16">
  <g fill="none" fill-rule="evenodd">
    <path fill="#F98B9E" fill-opacity=".6" d="M15,8 C15,11.866 11.866,15 8,15 C4.134,15 1,11.866 1,8 C1,4.134 4.134,1 8,1 C11.866,1 15,4.134 15,8"/>
    <path fill="#231F20" fill-opacity=".7" d="M11.852,10.16 L11.852,11.3 C11.636,11.36 11.384,11.42 11.012,11.42 C10.208,11.42 9.716,11.144 9.488,10.52 C9.104,11.108 8.552,11.432 7.916,11.432 C7.232,11.432 6.572,11.108 6.272,10.436 L6.248,10.436 C6.344,10.952 6.44,11.348 6.44,11.9 L6.44,13.256 L5,13.256 L5,5 L6.464,5 L6.464,8.6 C6.464,9.572 7.016,10.184 7.868,10.184 C8.72,10.184 9.296,9.572 9.296,8.6 L9.296,5 L10.748,5 L10.748,9.44 C10.748,9.98 10.988,10.208 11.444,10.208 C11.6,10.208 11.744,10.184 11.852,10.16 Z"/>
  </g>
</svg>
